packages/icons/src/row-spacing.svg

<svg width="15" height="15" viewBox="0 0 15 15" fill="none" xmlns="http://www.w3.org/2000/svg">
  <path
    fill-rule="evenodd"
    clip-rule="evenodd"
    d="M7.81832 0.68179C7.64258 0.506054 7.35766 0.506054 7.18192 0.68179L5.18192 2.68179C5.00619 2.85753 5.00619 3.14245 5.18192 3.31819C5.35766 3.49392 5.64258 3.49392 5.81832 3.31819L7.05012 2.08638L7.05012 5.50023C7.05012 5.74876 7.25159 5.95023 7.50012 5.95023C7.74865 5.95023 7.95012 5.74876 7.95012 5.50023L7.95012 2.08638L9.18192 3.31819C9.35766 3.49392 9.64258 3.49392 9.81832 3.31819C9.99406 3.14245 9.99406 2.85753 9.81832 2.68179L7.81832 0.68179ZM7.95012 12.9136V9.50023C7.95012 9.2517 7.74865 9.05023 7.50012 9.05023C7.25159 9.05023 7.05012 9.2517 7.05012 9.50023V12.9136L5.81832 11.6818C5.64258 11.5061 5.35766 11.5061 5.18192 11.6818C5.00619 11.8575 5.00619 12.1424 5.18192 12.3182L7.18192 14.3182C7.26632 14.4026 7.38077 14.45 7.50012 14.45C7.61947 14.45 7.73393 14.4026 7.81832 14.3182L9.81832 12.3182C9.99406 12.1424 9.99406 11.8575 9.81832 11.6818C9.64258 11.5061 9.35766 11.5061 9.18192 11.6818L7.95012 12.9136ZM1.49994 7.00017C1.2238 7.00017 0.999939 7.22403 0.999939 7.50017C0.999939 7.77631 1.2238 8.00017 1.49994 8.00017L13.4999 8.00017C13.7761 8.00017 13.9999 7.77631 13.9999 7.50017C13.9999 7.22403 13.7761 7.00017 13.4999 7.00017L1.49994 7.00017Z"
    fill="currentColor"
  />
</svg>

<svg xmlns="http://www.w3.org/2000/svg" width="15" height="15" fill="none"><path fill="currentColor" fill-rule="evenodd" d="M7.818.682a.45.45 0 0 0-.636 0l-2 2a.45.45 0 0 0 .636.636L7.05 2.086V5.5a.45.45 0 1 0 .9 0V2.086l1.232 1.232a.45.45 0 0 0 .636-.636zm.132 12.232V9.5a.45.45 0 1 0-.9 0v3.414l-1.232-1.232a.45.45 0 0 0-.636.636l2 2a.45.45 0 0 0 .636 0l2-2a.45.45 0 1 0-.636-.636zM1.5 7a.5.5 0 0 0 0 1h12a.5.5 0 1 0 0-1z" clip-rule="evenodd"/></svg>
